X:1
T:Title
%%score { ( 1 4 ) | ( 2 3 ) }
L:1/8
Q:1/4=90
M:4/4
K:D
V:1 treble nm="Grand Piano"
V:4 treble 
V:2 bass 
V:3 bass 
V:1
 [FA][FA][DF][EG] [FA]2 [Fd]2 | [GB][Bd][Ac][GB] [FA]4 | [CEG][CEG][DF][CE] [DF][FA] [Fd]2 | %3
w: William~J.~Kirkpatrick * * * * *|||
 ccdB [A,CA]4 | [A,FA][A,FA][DGB][Gc] [Fd][Fd] [FA]2 | [CEG][CEG][CFA][CGB] [FA][FA] [DF]2 | %6
w: |||
 [FA][FA][GB][Gc] [Fd][Fd] [DFA]2 | [DFA][DF][A,EG][K:bass][G,CE] [F,D]4 | [FA]2 [Fd]2 [GB]2 d2 | %9
w: |||
 AAGF [CE][GB] [FA]/[EG]/[DF]/[EG]/ | [FA]2 [Fd]2 [GB]2 d2 | [DFA][FA][A,DF][K:bass][G,CE] [F,D]4 | %12
w: |||
 [FA]2 [Fd]2 [GB]2 d2 | AAGF [CE][GB] [FA]/[EG]/[DF]/[EG]/ | [FA]2 [Fd]2 [GB]2 d2 | %15
w: |||
 [DFA][FA][A,DF][K:bass][G,CE] [F,D]4 |] %16
w: |
V:2
 [D,D][D,D][D,A,][D,A,] [D,D]2 [D,D]2 | [G,D][G,D][G,D][G,D] [D,D]4 | %2
 [A,,A,][A,,A,][A,,A,][A,,A,] [D,A,][D,A,] [D,A,]2 | [E,A,E][E,A,E][E,B,E][E,^G,D] z =G,F,E, | %4
 D,D,D,[D,B,] [D,A,][D,A,] [D,D]2 | [A,,A,][A,,A,][A,,A,][A,,A,] [D,D][D,D] [D,A,]2 | %6
 [D,D][D,D][D,D][D,A,] [D,A,][D,A,] D,2 | A,A,A,,A,, D,4 | z4 z2[K:treble] .[G,B,]2 | %9
 [A,DF][A,DF][A,E][K:bass][A,D] [A,,A,][A,,A,] [A,,A,]/[A,,A,]/[A,,A,]/[A,,A,]/ | %10
 z4 z2[K:treble] .[G,B,]2 | A,A,A,,A,, D,4 | z4 z2[K:treble] .[G,B,]2 | %13
 [A,DF][A,DF][A,E][K:bass][A,D] [A,,A,][A,,A,] [A,,A,]/[A,,A,]/[A,,A,]/[A,,A,]/ | %14
 z4 z2[K:treble] .[G,B,]2 | A,A,A,,A,, D,4 |] %16
V:3
 x8 | x8 | x8 | z4 A,,4 | x8 | x8 | x8 | x8 | D,D,[D,A,]D, G,G,[K:treble]G-[G,G] | x3[K:bass] x5 | %10
 .[D,A,]2 [D,A,]D, G,G,[K:treble]G-[G,G] | x8 | D,D,[D,A,]D, G,G,[K:treble]G-[G,G] | %13
 x3[K:bass] x5 | .[D,A,]2 [D,A,]D, G,G,[K:treble]G-[G,G] | x8 |] %16
V:4
 x8 | x8 | x8 | x8 | x8 | x8 | x8 | x3[K:bass] x5 | DD z D DD z B, | x8 | z [D,A,] z D DD z B, | %11
 x3[K:bass] x5 | DD z D DD z B, | x8 | z [D,A,] z D DD z B, | x3[K:bass] x5 |] %16

